!!!id: bhatk3192a2
!!!vol: 3
!!!page: 193
!!!antara: Umange naina
!!!raag: bihag
!!!taal: teental
!!!tempo: madhyalaya
!!Alternative antara
**kern
!!data: // >mP  P  >NS'  -/  S'  -  S'  -/  S'  -  G'  %S'/  -  S'  [N  P]/
==1
f#q
4g
4g
bq
2cc
=
2cc
2cc
=
2cc
4ee
[4ccS
=
4cc]
4cc
4bH
4gh
!!data: // >mP  -  S'  -/  N  -  -  -/  >PG  M  %P  -/ m  -  G  M/
==2
f#q
2g
2cc
=
1b
=
gq
4e
4f
2gS
=
2f#
4e
4f
!!data: // G  R  S  S'/  N  S'  N  S'/  N  >DN  %P  -/  >mP  -  N  D/
==3
4e
4d
4c
4cc
=
4b
4cc
4b
4cc
=
4b
aq
4b
2gS
=
f#q
2g
4b
4a
!!data: // S'  N  R'  -/  S'  N  %P  -/  >PG  M  G  -/  P  -  N  >DN/  
==4
4cc
4b
2dd
=
4cc
4b
2gS
=
gq
4e
4f
2e
=
2g
4b
aq
4b
==
*-
